src/lib/packages/icons/src/assets/filled/fast-forward.svg

<svg width="24" height="24" viewBox="0 0 24 24" fill="none" xmlns="http://www.w3.org/2000/svg">
<path d="M21.75 6V18C21.75 18.414 21.414 18.75 21 18.75C20.586 18.75 20.25 18.414 20.25 18V13.5459L15.144 17.5791C13.868 18.5871 12 17.6711 12 16.0371V12.019C11.995 12.588 11.746 13.154 11.255 13.542L6.14404 17.5791C4.86804 18.5871 3 17.6711 3 16.0371V7.96289C3 6.32889 4.86704 5.4129 6.14404 6.4209L11.255 10.457C11.746 10.845 11.995 11.4129 12 11.9819V7.96289C12 6.32889 13.867 5.4129 15.144 6.4209L20.25 10.4541V6C20.25 5.586 20.586 5.25 21 5.25C21.414 5.25 21.75 5.586 21.75 6Z" fill="currentColor"/>
</svg>

<svg xmlns="http://www.w3.org/2000/svg" width="24" height="24" fill="none"><path fill="currentColor" d="M21.75 6v12a.75.75 0 0 1-1.5 0v-4.454l-5.106 4.033C13.868 18.587 12 17.671 12 16.037V12.02a1.953 1.953 0 0 1-.745 1.523L6.144 17.58C4.868 18.587 3 17.671 3 16.037V7.963c0-1.634 1.867-2.55 3.144-1.542l5.111 4.036c.491.388.74.956.745 1.525v-4.02c0-1.633 1.867-2.55 3.144-1.541l5.106 4.033V6a.75.75 0 0 1 1.5 0Z"/></svg>
